X: 33702
T: Rannafast, The
R: jig
M: 6/8
K: Gmajor
|:G3 D3|GAB cde|f3 ef/g/e|dBG F3|
GAG D3|GAB cde|f3 eg/f/e|dBG G2:|
|:gdB D3|BAG d2e|fcA F3|AF/G/A def|
gdB D3|BAG d2e|f3 eg/f/e|dBG G2:|
|:G3 D3|c3d BAG|A3 D3|D3 DEF|
G3 D3|c2d BAG|AFD cAF|GAG G2D:|

